X:1
T:Surrexit Pastor bonus - Palestrina
T:#
%%score [ 1 { 2 | 3 } 4 ]
L:1/8
Q:1/4=200
M:none
K:F
V:1 treble nm="Alto" snm="A"
V:2 treble-8 nm="Tenor I" snm="T"
V:3 treble-8 
V:4 bass nm="Bass" snm="B"
V:1
"^Surrexit Pastor bonus""^G. P. da Palestrina\n(1526-94)" z16 | z16 | z16 | z8 B,8 | F12 E4 | %5
w: |||Sur-|re- xit|
 D4 C4 (D6 E2) |[M:4/2] (F2 E2 G6 F2 F4- | F4 E4) D8 | z16 | F8 B,8- | B,4 C4 D4 _E4 | (D8 C8) | %12
w: Pa- stor bo\- *||* * nus,||sur- re\-|* xit Pa- stor|bo\- *|
 C8 z4 C4 | F12 =E4 | D8 C8 | C8 C8 | z4 C4 F6 D2 | E4 F8 E4 | D4 D4 (C6 B,2 | C4) (D6 C2 C4-) | %20
w: nus, sur-|re- xit|Pa- stor|bo- nus,|qui a- ni-|mam su- am|po- su- it, *|* po\- * *|
 C4 =B,4 C8- | C8 z8 | z8 C8 | F6 D2 E4 F4- | F4 E4 D4 D4 | C16 | C8 D4 E4 | C4 D4 (E8 | %28
w: * su- it,||qui|a- ni- mam su\-|* am po- su-|it|pro o- vi-|bus su- is,|
 F6 E2 D4 C4 | D8 C4) A,4 | D6 B,2 C4 D4- | D4 C4 B,4 B,4 | A,4 C4 D4 E4 | C4 D4 (E4 F4- | %34
w: |* * qui|a- ni- mam su\-|* am po- su-|it pro o- vi-|bus su- is, *|
 F4 E4 F4) D4- | D4 F6 E2 D4 | (^C4 D8 C4) | D4 D8 F4 | C4 E4 D8 | (C6 B,2 A,4 G,2 A,2 | %40
w: * * * pro|* o- vi- bus|su\- * *|is, et pro|gre- ge su-|o * * * *|
 B,2 C2 D6 C2 C4- | C4 B,2 A,2 B,2 C2 D2 E2 | F8 B,8 | C8) z8 | F16 | E8 D4 (D4- | D2 C2 C8 =B,4) | %47
w: ||||mo-|ri di- gna\-||
 C16 | A,8 z8 | z16 | D12 F4 | C4 E4 D8 | C4 A,4 C4 (G,2 A,2 | B,2 C2 D8) C4- | C4 =B,4 C8- | %55
w: tus|est,||et pro|gre- ge su-|o, et pro gre\- *|* * * ge|* su- o|
 C8 z8 | z8 F8- | F8 E8 | D4 (D6 C2 C4- | C4) =B,4 C8- | C8 z8 | z8 z4 C4 | B,4 (C6 B,2 A,2 G,2) | %63
w: |mo\-|* ri|di- gna\- * *|* tus est:||Al-|le- lu\- * * *|
 (F,4 A,4 G,8) | A,4 C4 D4 E4 | (A,6 B,2 C2 D2 E2 C2 | F4 E6 D2 C4- | C4 =B,4 C8) | z8 F8 | %69
w: |ia, Al- le- lu-|ia, * * * * *|||Al-|
 E4 (F6 E2 D2 C2 | B,4 A,4 G,8) | F,16 | z4[Q:1/4=197] D4[Q:1/4=193] C4[Q:1/4=188] (D4- | %73
w: le- lu\- * * *||ia,|Al- le- lu\-|
[Q:1/4=184] D4[Q:1/4=180] C4[Q:1/4=173] B,8) |[Q:1/4=170] A,16 |] %75
w: |ia.|
V:2
 z16 | z16 | z16 | z16 | z8 c8 | F12 G4 |[M:4/2][K:treble-8] A4 B4 (A8 | G6 A2 B4) A4 | d8 c4 B4 | %9
w: ||||Sur-|re- xit|Pa- stor bo\-|* * * nus,|sur- re- xit|
 c4 (d6 c2 B2 A2 | G4) A4 B4 c4- | c2 B2 B8 A2 G2 | A4 G4 F4 E4 | z4 F4 c8- | c4 B4 A4 G4 | A8 G8 | %16
w: Pa- stor * * *|* bo\- * *||* * * nus,|sur- re\-|* xit Pa- stor|bo\- *|
 F16 | z16 | z16 | z8 z4 C4 | F6 D2 E4 F4- | F4 E4 (D4 C4 | D4) E4 F8- | F8 z8 | z8 z4 F4 | %25
w: nus,|||qui|a- ni- mam su\-|* am po- *|* su- it||pro|
 G4 A4 F4 G4 | (A2 B2 c2 A2 B4 c4- | c2 BA B4 c8) | z4 F4 G4 A4 | F4 G4 A2 B2 c2 A2 | B8 z8 | %31
w: o- vi- bus su-|is, * * * * *||pro o- vi-|bus su- is, * * *||
 z8 z4 G4 | c6 A2 B4 c4- | c4 B4 A4 A4 | G8 z4 F4 | G4 A4 F4 G4 | (A16 | B6 AG F6 G2) | A8 z8 | %39
w: qui|a- ni- mam su\-|* am po- su-|it pro|o- vi- bus su-|is,|||
 z16 | z16 | z4 G8 B4 | F4 A4 G8 | F8 B8- | B8 A8 | G8 F8 | (C6 E2 D8) | C16 | z4 D4 F4 (C2 D2 | %49
w: ||et pro|gre- ge su-|o mo\-|* ri|di- gna-|tus * *|est,|et pro gre\- *|
 E2 F2 G8) F4 | (B6 A2 G4 D2 E2) | (F4 C4) G8 | z8 z4 E4 | G8 A4 F4 | G8 A8 | z8 c8- | c8 B8 | %57
w: * * * ge|su\- * * * *|* * o,|et|pro gre- ge|su- o|mo\-|* ri|
 A8 G8- | G8 (E6 D2 | E4 F4) (G8 | A6 B2 c8 | F16) | z16 | z16 | c8 B4 (c4- | c2 B2 A2 G2 F4 E4 | %66
w: di- gna\-|* tus *|* * est:|||||Al- le- lu\-||
 D4 C4 E4 F4 | D8) C4 z4 | z8 z4 F4 | G4 A4 (D6 E2 | F2 G2 A2 B2 c6 B2 | A4) d4 c4 (d4- | %72
w: |* ia,|Al-|le- lu- ia, *||* Al- le- lu\-|
 d2 c2 B4) A4 B4 | A8 d8 | c16 |] %75
w: * * * ia, Al-|le- lu-|ia.|
V:3
 F8 c8- | c4 B4 A4 G4 | (A8 B6 A2 | G8) (F4 G2 A2 | B2 A2 A2 GF G8) | z16 | %6
w: Sur- re\-|* xit Pa- stor|bo\- * *|* nus, * *|||
[M:4/2][K:treble-8] z16 | c8 F8- | F4 G4 A4 B4 | (A8 G8- | G4 F2 E2 D4 C4) | F12 c4 | F4 G4 A8 | %13
w: |sur- re\-|* xit Pa- stor|bo\- *||nus, sur-|re- xit Pa-|
 B4 (A8 G2 F2 | G6 F2 E2 D2 E4- | E2 C2 F8 E4) | F4 A4 A6 B2 | c4 d8 c4 | B4 B4 (A6 F2 | %19
w: stor bo\- * *|||nus, qui a- ni-|mam su- am|po- su- it, *|
 G4) (A6 F2 G4) | (A4 F4) G4 A4 | z8 F8 | B6 G2 A4 c4- | c4 B4 A4 A4 | (G6 A2 B4 A4) | z16 | %26
w: * po\- * *|* * su- it,|qui|a- ni- mam su\-|* am po- su-|it * * *||
 z4 F8 G4 | A4 F4 G4 (A4- | A2 B2 c2 A2 B4 c4- | c4 B4) c4 F4 | F4 G4 (F6 E2 | D4) (F6 ED E4) | %32
w: pro o-|vi- bus su\- *||* * is, qui|a- ni- mam *|* su\- * * *|
 F8 D4 C4 | F8 z8 | z4 c4 B4 A4 | (G4 F2 E2 D8) | E4 F4 E8 | G8 z4 A4- | A4 c4 G4 B4 | %39
w: am po- su-|it|pro o- vi-|bus * * *|su\- * is,|* et|* pro gre- ge|
 (A6 G2 F4 E4 | G4 F6 E2 C4) | D8 z4 G4 | A4 c4 d4 B4- | B4 A4 d8- | d8 c8- | c8 A8 | %46
w: su\- * * *||o, et|pro gre- ge su\-|* o mo\-|* ri|* di-|
 G8 (A4 G2 F2 | G16) | c4 A8 c4 | G4 B4 A8 | G4 G4 B4 (F2 G2) | (A2 B2 c8) B4 | (A6 GF E8) | %53
w: gna- tus * *||est, et pro|gre- ge su-|o, et pro gre\- *|* * * ge|su\- * * *|
 (D6 E2 F2 E2 D2 C2 | D8 F8) | A16 | G8 F8 | c8 C4 c4- | c4 B4 A8 | G4 F6 ED E4 | F4 F4 G4 A4 | %61
w: o * * * * *||mo-|ri di-|gna- tus, mo\-|* ri di-|gna- tus * * *|est: Al- le- lu-|
 (D6 E2 F2 G2 A2 F2 | G4) (A6 G2 F2 E2) | (D2 E2) F8 E4 | F8 z8 | z8 z4 c4 | B4 c4 c2 B2 A2 G2 | %67
w: ia, * * * * *|* Al\- * * *|* * le- lu-|ia,|Al-|le- lu- ia, * * *|
 F4 F4 G4 A4 | (D6 E2 F2 G2 A2 F2) | B4 c4 F8- | F8 C8 | D2 E2 F2 G2 A4 D4 | F16- | F16 | F16 |] %75
w: * Al- le- lu-|ia, * * * * *||* Al-|le\- * * * * *|lu\-||ia.|
V:4
 z16 | z16 | F,8 B,,8- | B,,4 C,4 D,4 _E,4 | (D,8 C,8) | B,,4 A,,4 B,,8 | %6
w: ||Sur- re\-|* xit Pa- stor|bo\- *|nus, sur- re\-|
[M:4/2] A,,4 G,,4 D,4 F,4 | C,8 D,8 | B,,8 F,4 G,4 | F,8 z8 | z16 | B,,8 F,8- | F,4 E,4 D,4 C,4 | %13
w: * xit Pa- stor|bo- nus,|Pa- stor bo-|nus,||sur- re\-|* xit Pa- stor|
 D,8 C,8 | G,,8 C,8 | (A,,6 B,,2 C,8) | F,,16 | z16 | B,,8 F,6 D,2 | E,4 F,8 E,4 | %20
w: bo- nus,|Pa- stor|bo\- * *|nus,||qui a- ni-|mam su- am|
 D,4 D,4 C,4 (F,,2 G,,2 | A,,2 B,,2 C,2 A,,2 B,,4 A,,4 | G,,4) G,,4 F,,8 | z4 B,,4 C,4 D,4 | %24
w: po- su- it, po\- *||* su- it|pro o- vi-|
 B,,4 (C,4 D,2 E,2 F,2 D,2 | E,4 F,6 E,D, E,4) | F,4 F,4 D,4 C,4 | F,4 D,4 (C,2 B,,2 A,,2 G,,2 | %28
w: bus su\- * * * *||is, pro o- vi-|bus su- is, * * *|
 F,,8) z8 | z8 F,,8 | B,,6 G,,2 A,,4 B,,4- | B,,4 A,,4 G,,4 G,,4 | F,,8 z8 | z4 B,,4 C,4 D,4 | %34
w: |qui|a- ni- mam su\-|* am po- su-|it|pro o- vi-|
 B,,4 C,4 (D,6 C,2 | B,,4) A,,4 B,,4 B,,4 | A,,16 | (G,,2 A,,2 B,,2 C,2 D,8) | A,,8 z8 | %39
w: bus su- is, *|* pro o- vi-|bus|su\- * * * *|is,|
 z4 A,,8 C,4 | G,,4 B,,4 A,,8 | G,,16 | z16 | z8 B,,8- | B,,8 F,,8 | C,8 D,8 | E,8 (F,8- | %47
w: et pro|gre- ge su-|o||mo-|* ri|di- gna-|tus est,|
 F,4 E,2 D,2 E,8 | F,8) z8 | z16 | z16 | z16 | A,,12 C,4 | G,,4 B,,4 A,,8 | (G,,8 F,,8) | F,16 | %56
w: |||||et pro|gre- ge su-|o *|mo-|
 E,8 D,8 | C,16 | G,,8 (A,,6 B,,2 | C,4 D,4 C,8) | z4 F,4 E,4 (F,4- | F,2 E,2 D,2 C,2 B,,4 A,,4 | %62
w: ri di-|gna-|tus est: *||Al- le- lu\-||
 G,,4) F,,4 A,,8 | B,,4 F,,4 (C,8 | F,,8) z8 | z16 | z16 | z4 F,4 E,4 (F,4- | %68
w: * ia, Al-|le- lu- ia,||||Al- le- lu\-|
 F,2 E,2 D,2 C,2 B,,4 A,,4) | G,,4 F,,4 (B,,6 C,2 | D,2 E,2 F,8) E,4 | F,4 B,,4 A,,4 (B,,4- | %72
w: |ia, Al- le\- *|* * * lu-|ia, Al- le- lu\-|
 B,,2 C,2 D,2 E,2 F,4) B,,4 | D,4 A,,4 B,,8 | F,,16 |] %75
w: * * * * * ia,|Al- le- lu-|ia.|

